Papirus/32x32/apps/org.kde.merkuro.contact.svg

<!-- Created with Inkscape (http://www.inkscape.org/) -->
<svg width="32" height="32" version="1.1" viewBox="0 0 32 32" xmlns="http://www.w3.org/2000/svg">
 <rect x="2" y="3" width="28" height="28" ry="5" style="opacity:.2"/>
 <rect x="2" y="2" width="28" height="28" ry="5" style="fill:#4bae4f"/>
 <path d="m16 8c-2.2096 0-4 1.7912-4 4s1.7904 4 4 4 4-1.7912 4-4-1.7904-4-4-4zm0 10.000001c-6.9993 0.0042-7 4.430769-7 4.430769v1.8s1.292299 2.76923 7 2.76923 7-2.76923 7-2.76923v-1.8s0-4.433538-6.9986-4.430769z" style="opacity:.2"/>
 <path d="m16 7c-2.2096 0-4 1.7912-4 4s1.7904 4 4 4 4-1.7912 4-4-1.7904-4-4-4zm0 10.000001c-6.9993 0.0042-7 4.430769-7 4.430769v1.8s1.292299 2.76923 7 2.76923 7-2.76923 7-2.76923v-1.8s0-4.433538-6.9986-4.430769z" style="fill:#ffffff"/>
 <path d="M 7,2 C 4.2300028,2 2,4.230003 2,6.9999999 v 1 C 2,5.2300025 4.2300028,3 7,3 h 18 c 2.769997,0 5,2.2300025 5,4.9999999 v -1 C 30,4.230003 27.769997,2 25,2 Z" style="fill:#ffffff;opacity:.2"/>
</svg>

<svg xmlns="http://www.w3.org/2000/svg" width="32" height="32" version="1.1">
 <rect style="opacity:0.2" width="28" height="28" x="2" y="3" ry="5"/>
 <rect style="fill:#4bae4f" width="28" height="28" x="2" y="2" ry="5"/>
 <path style="fill:#ffffff;opacity:0.2" d="M 7,2 C 4.2300028,2 2,4.230003 2,6.9999999 v 1 C 2,5.2300025 4.2300028,3 7,3 h 18 c 2.769997,0 5,2.2300025 5,4.9999999 v -1 C 30,4.230003 27.769997,2 25,2 Z"/>
 <path style="opacity:0.2" d="M 20,12 A 4,4 0 0 1 16,16 4,4 0 0 1 12,12 4,4 0 0 1 16,8 4,4 0 0 1 20,12 Z M 16,18 C 9,18 9,22.43 9,22.43 V 24.23 C 9,24.23 10.29,27 16,27 21.71,27 23,24.23 23,24.23 V 22.43 C 23,22.43 23,18 16,18 Z"/>
 <path style="fill:#ffffff" d="M 20,11 A 4,4 0 0 1 16,15 4,4 0 0 1 12,11 4,4 0 0 1 16,7 4,4 0 0 1 20,11 Z M 16,17 C 9,17 9,21.43 9,21.43 V 23.23 C 9,23.23 10.29,26 16,26 21.71,26 23,23.23 23,23.23 V 21.43 C 23,21.43 23,17 16,17 Z"/>
</svg>
